client/public/assets/icons/custom/custom112.svg

<?xml version="1.0" encoding="UTF-8" standalone="no"?>
<svg width="100px" height="100px" viewBox="0 0 100 100" version="1.1" xmlns="http://www.w3.org/2000/svg" xmlns:xlink="http://www.w3.org/1999/xlink">
    <g stroke="none" stroke-width="1" fill="none" fill-rule="evenodd">
        <path d="M51.1210526,50.1657895 C42.6556164,48.192157 33.8496467,48.192157 25.3842105,50.1657895 C22.5442156,51.1068114 20.5705362,53.6913915 20.4105263,56.6789474 L20.4105263,61.9289474 C20.5484241,64.9245989 22.5305832,67.5202835 25.3842105,68.4421053 C26.1736842,68.6394737 26.9631579,68.7578947 27.7526316,68.9157895 L34.4236842,78.4684211 C35.6473684,80.2052632 36.6342105,79.8894737 36.6342105,77.7578947 L36.6342105,69.8631579 C41.5044508,70.0227946 46.3746635,69.5450626 51.1210526,68.4421053 C53.9610475,67.5010834 55.9347269,64.9165033 56.0947368,61.9289474 L56.0947368,56.6789474 C55.9658844,53.6800112 53.9802303,51.07975 51.1210526,50.1657895 L51.1210526,50.1657895 Z M74.6473684,22.5342105 C63.1408035,19.652788 51.1013017,19.652788 39.5947368,22.5342105 C36.7431906,23.4823501 34.7674082,26.085365 34.6210526,29.0868421 L34.6210526,38.4026316 C34.7674082,41.4041086 36.7431906,44.0071236 39.5947368,44.9552632 C45.9931659,46.5532037 52.5820794,47.2572609 59.1736842,47.0473684 L59.1736842,58.0210526 C59.1736842,60.1131579 60.1605263,60.4684211 61.3447368,58.7315789 L70.3052632,45.9421053 C71.7657895,45.6657895 73.1868421,45.35 74.6078947,44.9947368 C77.459441,44.0465973 79.4352234,41.4435823 79.5815789,38.4421053 L79.5815789,29.1263158 C79.4679497,26.1255389 77.4999316,23.5120109 74.6473684,22.5736842 L74.6473684,22.5342105 Z" id="6dca0355-fb32-4107-95f1-84205617a1d9" fill="#FFFFFF"></path>
    </g>
</svg>

<?xml version="1.0"?><svg width="100" height="100" viewBox="0 0 100 100" xmlns="http://www.w3.org/2000/svg"><path d="m51.1 50.2c-8.4-2-17.3-2-25.7 0-2.9 0.9-4.8 3.5-5 6.5v5.2c0.1 3 2.1 5.6 5 6.5 0.8 0.2 1.6 0.4 2.4 0.5l6.6 9.6c1.2 1.7 2.2 1.4 2.2-0.7v-7.9c4.9 0.1 9.8-0.4 14.5-1.5 2.9-0.9 4.8-3.5 5-6.5v-5.2c-0.1-3-2.1-5.6-5-6.5z m23.5-27.7c-11.5-2.8-23.5-2.8-35 0-2.9 1-4.8 3.6-5 6.6v9.3c0.2 3 2.1 5.6 5 6.6 6.4 1.6 13 2.3 19.6 2v11c0 2.1 1 2.5 2.1 0.7l9-12.8c1.5-0.2 2.9-0.5 4.3-0.9 2.9-1 4.8-3.6 5-6.6v-9.3c-0.1-3-2.1-5.6-5-6.5v-0.1z" fill="#fff"></path></svg>
